X: 15601
T: Go Mauve
R: reel
M: 4/4
K: Edorian
EGBG E2 GB|ddcB F2 FG|AGFE D2 AG|FEDE FD E2|
EGBG E2 GB|ddcB F2 FG|AGFE DEFG|1 E z E3 FGF:|2 E z E4 AF||
|:E z ED EFGE|F z FE FGAF|G z GF GABG|A z A2 AGFG|
E z ED EFGE|F z FE FGAF|G z GF GBAG|1 A2 A2 BAGF:|2 A3 B- BAGF||

